X:174
T:Teelin Highland 1 (h)
B:NFID.080c
174teel_h1
S:JD
L:1/8
M:C
R:hornpipe
Q:280
K:A=G
A|(3Bcd eg fdeA|(3Bcd ef gfga|(3Bcd eg fdeA|gedB A2A:|
^g|a2ea fAed|cABA cee^g|a2ea fdea|gedB A2A:|

%%%

